X:1
T:Title
%%score { ( 1 3 ) | ( 2 4 ) }
L:1/8
Q:1/4=94
M:4/4
K:Ab
V:1 treble nm="Grand Piano"
V:3 treble 
V:2 bass 
V:4 bass 
V:1
 CC[CE][CE] [DA]2 [DA]2 | BcBE [Cc]2 [CB][CA] | [DG]2 [DB]2 [G,B,D]2 [G,CE][G,CF] | [CE-]4 E4 | %4
w: I.~H.~Meredith * * * * *||||
 [A,C][E,A,C][E,CE][E,CE][K:treble] [DA]2 [DA]2 | BcBE [Cc]2 [Ec][Ec] | %6
w: ||
 [EB]2 [EB]2 [=DA]2 [B,DG][A,DF] | [G,E]6 z2 | [cec']4 [Bdb]2 [Aca]2 | [cec']4 [Aca]4 | %10
w: ||||
 [dfd']2 [Fdf]2 [Afa]2 [B=eb]2 | [cec']6 z2 | [ege']4 [dfd']2 [Bdb]2 | [dfd']4 [cec']4 | %14
w: ||||
 [B=db]2 [Ada]2 [Gdg]2 [Ada]2 | [Bdb]6 z2 | [cec']4 [Bdb]2 [Aca]2 | [cec']4 [Aca]4 | %18
w: ||||
 [dfd']2 [Fdf]2 [Afa]2 [Bfb]2 | [c=ec']6 z2 | [e_ge']4 [dfd']2 [cec']2 | %21
w: |||
 [Bdb]2 [Fdf]2 [Gdg]2 [Ada]2 | [cec']4 [Bdb]4 | [Aca]6 z2 |] %24
w: |||
V:2
 [A,,E,A,][A,,E,A,][A,,E,][A,,E,] [A,,F,]2 [A,,F,]2 | %1
 [E,G,D][E,G,D][E,G,D][E,G,D] [A,,E,A,]2 [A,,E,][A,,E,] | [B,,E,]2 [B,,F,]2 E,2 E,E, | %3
 z2 F,2 B,,4 | A,,A,,A,,A,, [A,,F,]2 [A,,F,]2 | %5
 [E,G,D][E,G,D][E,G,D][E,G,D] [A,,E,]2 [=A,,_G,][A,,G,] | [B,,G,]2 [B,,G,]2 F,CB,,B,, | z4 D2 z2 | %8
 A,,E,A,E, A,,E,A,E, | A,,E,A,E, A,,E,A,E, | D,A,DA, D,A,DA, | A,,E,A,F, A,,E,A,E, | %12
 E,,E,G,E, E,,E,G,E, | A,,E,A,E, A,,E,A,E, | B,,F,B,F, B,,F,B,F, | E,,E,G,F, E,D,C,B,, | %16
 A,,E,A,E, A,,E,A,E, | A,,E,A,E, A,,E,A,E, | D,A,DA, D,A,G,F, | C,G,CG, C,G,CG, | %20
 F,,F,=A,F, F,,F,A,F, | B,,F,B,F, D,F,B,F, | E,,E,A,E, E,,E,G,E, | A,,F,E,C, A,,2 z2 |] %24
V:3
 x8 | x8 | x8 | A,2 z2 [F,D]4 | x4[K:treble] x4 | x8 | x8 | x8 | x8 | x8 | x8 | x8 | x8 | x8 | x8 | %15
 x8 | x8 | x8 | x8 | x8 | x8 | x8 | x8 | x8 |] %24
V:4
 x8 | x8 | x8 | A,,4 z4 | x8 | x8 | z4 B,,2 z2 | E,6 z2 | x8 | x8 | x8 | x8 | x8 | x8 | x8 | x8 | %16
 x8 | x8 | x8 | x8 | x8 | x8 | x8 | x8 |] %24

